X:987
T:For These Are My Mountains
C:Joe Buchanan's Scottish Tome - Page 570.0
I:570 0
Z:Carl Allison
R:Waltz
L:1/4
M:3/4
K:C
G | "C"G F E | "G7"D3 | "C"C3- | C2 c | "F"c B A | "C"G3- | "G7"G3 | "C"G2 G |
"F"A B c | "Em"G3 | "Am"E3- | E2 G | "A7"G E C | "D7"D3- | D3- | "G7"D2 G |
"C"G F E | "G7"D3 | "C"C3- | C2 E | "C7"E F G | "F"A3- | A3- | A2 c |
"F"c B A | "G7"G3 | "C"E3- | E2 G | "D7"F E "G7"D | "C"C3- | "Fm"C3- | ""C2 G |
"C"C D E | "G7"D3 | "C"C3- | C2 C | "F"F G A | "G"G3- | G3- | G2 G |
"Am"A B c | "Em"G3 | "Am"E3- | "A7"E2 G | "C"G E C | "G7"D3- | D3- | "C"D2 G |
"C"C D E | "G"D3 | "C"C3- | C2 C | "G7"E F G | "F"A3- | A3- | A2 c |
"Am"c B A | "G7"G3 | "C"E3- | E2 G, | "D7"F E "Gm"D | "C"C3- | C3- | C2 |]
W:Errata: Added "Em" chord second measure, second line.

